icons/Editor/link-unlink-m.svg

<svg viewBox="0 0 24 24" xmlns="http://www.w3.org/2000/svg"><path d="M17.657 14.8286L16.2428 13.4143L17.657 12.0001C19.2191 10.438 19.2191 7.90538 17.657 6.34328C16.0949 4.78118 13.5622 4.78118 12.0001 6.34328L10.5859 7.75749L9.17171 6.34328L10.5859 4.92907C12.9291 2.58592 16.7281 2.58592 19.0712 4.92907C21.4143 7.27221 21.4143 11.0712 19.0712 13.4143L17.657 14.8286ZM14.8286 17.657L13.4143 19.0712C11.0712 21.4143 7.27221 21.4143 4.92907 19.0712C2.58592 16.7281 2.58592 12.9291 4.92907 10.5859L6.34328 9.17171L7.75749 10.5859L6.34328 12.0001C4.78118 13.5622 4.78118 16.0949 6.34328 17.657C7.90538 19.2191 10.438 19.2191 12.0001 17.657L13.4143 16.2428L14.8286 17.657ZM14.8286 7.75749L16.2428 9.17171L9.17171 16.2428L7.75749 14.8286L14.8286 7.75749ZM5.77539 2.29303L7.70724 1.77539L8.74252 5.63909L6.81067 6.15673L5.77539 2.29303ZM15.2578 18.3612L17.1896 17.8435L18.2249 21.7072L16.293 22.2249L15.2578 18.3612ZM2.29303 5.77539L6.15673 6.81067L5.63909 8.74252L1.77539 7.70724L2.29303 5.77539ZM18.3612 15.2578L22.2249 16.293L21.7072 18.2249L17.8435 17.1896L18.3612 15.2578Z"/></svg>

<svg xmlns="http://www.w3.org/2000/svg" viewBox="0 0 24 24">
    <g>
        <path fill="none" d="M0 0h24v24H0z"/>
        <path d="M17.657 14.828l-1.414-1.414L17.657 12A4 4 0 1 0 12 6.343l-1.414 1.414-1.414-1.414 1.414-1.414a6 6 0 0 1 8.485 8.485l-1.414 1.414zm-2.829 2.829l-1.414 1.414a6 6 0 1 1-8.485-8.485l1.414-1.414 1.414 1.414L6.343 12A4 4 0 1 0 12 17.657l1.414-1.414 1.414 1.414zm0-9.9l1.415 1.415-7.071 7.07-1.415-1.414 7.071-7.07zM5.775 2.293l1.932-.518L8.742 5.64l-1.931.518-1.036-3.864zm9.483 16.068l1.931-.518 1.036 3.864-1.932.518-1.035-3.864zM2.293 5.775l3.864 1.036-.518 1.931-3.864-1.035.518-1.932zm16.068 9.483l3.864 1.035-.518 1.932-3.864-1.036.518-1.931z"/>
    </g>
</svg>
